svg/business/gift_2_line.svg

<?xml version="1.0" encoding="UTF-8"?>
<svg width="24px" height="24px" viewBox="0 0 24 24" version="1.1" xmlns="http://www.w3.org/2000/svg" xmlns:xlink="http://www.w3.org/1999/xlink">
    <title>gift_2_line</title>
    <g id="页面-1" stroke="none" stroke-width="1" fill="none" fill-rule="evenodd">
        <g id="Business" transform="translate(-816.000000, -288.000000)">
            <g id="gift_2_line" transform="translate(816.000000, 288.000000)">
                <path d="M24,0 L24,24 L0,24 L0,0 L24,0 Z M12.5934901,23.257841 L12.5819402,23.2595131 L12.5108777,23.2950439 L12.4918791,23.2987469 L12.4918791,23.2987469 L12.4767152,23.2950439 L12.4056548,23.2595131 C12.3958229,23.2563662 12.3870493,23.2590235 12.3821421,23.2649074 L12.3780323,23.275831 L12.360941,23.7031097 L12.3658947,23.7234994 L12.3769048,23.7357139 L12.4804777,23.8096931 L12.4953491,23.8136134 L12.4953491,23.8136134 L12.5071152,23.8096931 L12.6106902,23.7357139 L12.6232938,23.7196733 L12.6232938,23.7196733 L12.6266527,23.7031097 L12.609561,23.275831 C12.6075724,23.2657013 12.6010112,23.2592993 12.5934901,23.257841 L12.5934901,23.257841 Z M12.8583906,23.1452862 L12.8445485,23.1473072 L12.6598443,23.2396597 L12.6498822,23.2499052 L12.6498822,23.2499052 L12.6471943,23.2611114 L12.6650943,23.6906389 L12.6699349,23.7034178 L12.6699349,23.7034178 L12.678386,23.7104931 L12.8793402,23.8032389 C12.8914285,23.8068999 12.9022333,23.8029875 12.9078286,23.7952264 L12.9118235,23.7811639 L12.8776777,23.1665331 C12.8752882,23.1545897 12.8674102,23.1470016 12.8583906,23.1452862 L12.8583906,23.1452862 Z M12.1430473,23.1473072 C12.1332178,23.1423925 12.1221763,23.1452606 12.1156365,23.1525954 L12.1099173,23.1665331 L12.0757714,23.7811639 C12.0751323,23.7926639 12.0828099,23.8018602 12.0926481,23.8045676 L12.108256,23.8032389 L12.3092106,23.7104931 L12.3186497,23.7024347 L12.3186497,23.7024347 L12.3225043,23.6906389 L12.340401,23.2611114 L12.337245,23.2485176 L12.337245,23.2485176 L12.3277531,23.2396597 L12.1430473,23.1473072 Z" id="MingCute" fill-rule="nonzero"></path>
                <path d="M8.66667,2 C10.007,2 11.2051,2.60849 12,3.56429 C12.7949,2.60849 13.993,2 15.3333,2 L15.4,2 C16.8359,2 18,3.16406 18,4.6 C18,5.09908 17.8925,5.57305 17.6993,6 L18,6 C19.6569,6 21,7.34315 21,9 L21,18 C21,19.6569 19.6569,21 18,21 L6,21 C4.34315,21 3,19.6569 3,18 L3,9 C3,7.34315 4.34315,6 6,6 L6.3007,6 C6.10753,5.57305 6,5.09908 6,4.6 C6,3.16406 7.16406,2 8.6,2 L8.66667,2 Z M19,14 L13,14 L13,19 L18,19 C18.51285,19 18.9355092,18.613973 18.9932725,18.1166239 L19,18 L19,14 Z M11,14 L5,14 L5,18 C5,18.5523 5.44772,19 6,19 L11,19 L11,14 Z M11,8 L6,8 C5.48716857,8 5.06449347,8.38604429 5.0067278,8.88337975 L5,9 L5,12 L11,12 L11,8 Z M18,8 L13,8 L13,12 L19,12 L19,9 C19,8.44772 18.5523,8 18,8 Z M8.66667,4 L8.6,4 C8.26863,4 8,4.26863 8,4.6 C8,5.3732 8.6268,6 9.4,6 L10.9764,6 C10.8146,4.86924 9.84216,4 8.66667,4 Z M15.4,4 L15.3333,4 C14.2137762,4 13.2784701,4.7884263 13.052163,5.84030753 L13.0236,6 L14.6,6 C15.3732,6 16,5.3732 16,4.6 C16,4.301767 15.782434,4.0543534 15.4973302,4.00785301 L15.4,4 Z" id="形状" fill="#09244B"></path>
            </g>
        </g>
    </g>
</svg>

<svg xmlns="http://www.w3.org/2000/svg" width="24" height="24"><g fill="none" fill-rule="evenodd"><path d="M24 0v24H0V0zM12.593 23.258l-.011.002-.071.035-.02.004-.014-.004-.071-.035c-.01-.004-.019-.001-.024.005l-.004.01-.017.428.005.02.01.013.104.074.015.004.012-.004.104-.074.012-.016.004-.017-.017-.427c-.002-.01-.009-.017-.017-.018m.265-.113-.013.002-.185.093-.01.01-.003.011.018.43.005.012.008.007.201.093c.012.004.023 0 .029-.008l.004-.014-.034-.614c-.003-.012-.01-.02-.02-.022m-.715.002a.023.023 0 0 0-.027.006l-.006.014-.034.614c0 .012.007.02.017.024l.015-.002.201-.093.01-.008.004-.011.017-.43-.003-.012-.01-.01z"/><path fill="#09244B" d="M8.667 2c1.34 0 2.538.608 3.333 1.564A4.324 4.324 0 0 1 15.333 2h.067A2.6 2.6 0 0 1 18 4.6c0 .5-.108.973-.3 1.4h.3a3 3 0 0 1 3 3v9a3 3 0 0 1-3 3H6a3 3 0 0 1-3-3V9a3 3 0 0 1 3-3h.3c-.192-.427-.3-.9-.3-1.4A2.6 2.6 0 0 1 8.6 2zM19 14h-6v5h5a1 1 0 0 0 .993-.883L19 18zm-8 0H5v4a1 1 0 0 0 1 1h5zm0-6H6a1 1 0 0 0-.993.883L5 9v3h6zm7 0h-5v4h6V9a1 1 0 0 0-1-1M8.667 4H8.6a.6.6 0 0 0-.6.6A1.4 1.4 0 0 0 9.4 6h1.576a2.334 2.334 0 0 0-2.31-2M15.4 4h-.067c-1.12 0-2.055.788-2.28 1.84l-.03.16H14.6A1.4 1.4 0 0 0 16 4.6a.6.6 0 0 0-.503-.592z"/></g></svg>
